X:1
T:Thee I’ll extol, my God and King
T:Thee I’ll extol, my God and King (John Smith)
C:John Smith
Z:Text: Tate/Brady, on Ps. 145.
%%score [ 1 2 3 4 ]
L:1/8
M:2/2
K:G
V:1 treble nm="Soprano" snm="S."
V:2 treble nm="Alto" snm="A."
V:3 treble-8 transpose=-12 nm="Tenor" snm="T."
V:4 bass nm="Bass" snm="B."
V:1
 G2 | G2 F2 G2 (AB) | A2 B2 d2 B2 | c2 d2 e2 (d>c) | B6 d2 | B2 (AG) (FA) B2 | c2 d2 e2 A2 | %7
w: The|praise, that to thy _|love be- longs, They|shall with joy pro- *|claim: Thy|truth of _ all _ their|grate- ful songs Shall|
w: Thee|I’ll ex- tol, my _|God and King, Thy|end- less praise pro- *|claim. This|tri- bute _ dai- * ly|I will bring, And|
w: Re-|nown’d for migh- ty _|acts, thy fame To|fu- ture times ex- *|tends; From|age to _ age _ thy|glo- rious name Suc-|
 ^G2 A2 G3 G | A6 A2 | A2 (ed) c2 (dc) | B2 c2 d2 d2 | c2 (dc) B2 (A>G) | F6 A2 | A2 (GA) B2 A2 | %14
w: be the con- stant|theme. The|Lord is _ good; fresh _|acts of grace His|pi- ty _ still sup- *|plies; His|an- ger _ moves with|
w: e- ver bless thy|name. Thou,|Lord, be- * yond com- *|pare, art great, And|high- ly _ to be _|prais’d; Thy|ma- jes- * ty, with|
w: cess- ive- ly des-|cends. While|I thy _ glo- ry _|and re- nown, And|wond- rous _ works ex- *|press, The|world with _ me thy|
 G2 (FE) F2 (AB) | c2 d2 e2 (d>c) | B6 |] %17
w: slow- est _ pace, His _|will- ing mer- cy _|flies.|
w: bound- less _ height, A- *|bove our know- ledge _|rais’d.|
w: might shall _ own, And _|thy great pow’r con- *|fess.|
V:2
 D2 | D2 C2 B,2 (FG) | F2 E2 D2 F2 | G2 G2 G3 F | G6 F2 | G2 (DE) F2 G2 | E2 B,2 C2 C2 | %7
w: The|praise, that to thy _|love be- longs, They|shall with joy pro-|claim: Thy|truth of _ all their|grate- ful songs Shall|
w: Thee|I’ll ex- tol, my _|God and King, Thy|end- less praise pro-|claim. This|tri- bute _ dai- ly|I will bring, And|
w: Re-|nown’d for migh- ty _|acts, thy fame To|fu- ture times ex-|tends; From|age to _ age thy|glo- rious name Suc-|
 D2 E2 =F3 E | E6 E2 | D2 (EF) G2 (AG) | (FD) E2 G2 F2 | E2 (GA) G2 E2 | D6 F2 | E2 (GE) F2 E2 | %14
w: be the con- stant|theme. The|Lord is _ good; fresh _|acts _ of grace His|pi- ty _ still sup-|plies; His|an- ger _ moves with|
w: e- ver bless thy|name. Thou,|Lord, be- * yond com- *|pare, _ art great, And|high- ly _ to be|prais’d; Thy|ma- jes- * ty, with|
w: cess- ive- ly des-|cends. While|I thy _ glo- ry _|and _ re- nown, And|wond- rous _ works ex-|press, The|world with _ me thy|
 D2 E2 D2 F2 | G2 G2 G3 F | G6 |] %17
w: slow- est pace, His|will- ing mer- cy|flies.|
w: bound- less height, A-|bove our know- ledge|rais’d.|
w: might shall own, And|thy great pow’r con-|fess.|
V:3
 G2 | B2 c2 d2 (cB) | c2 B2 A2 d2 | c2 B2 A3 A | G6 A2 | B2 c2 d2 (cB) | e2 d2 c2 e2 | d2 c2 B3 B | %8
w: The|praise, that to thy _|love be- longs, They|shall with joy pro-|claim: Thy|truth of all their _|grate- ful songs Shall|be the con- stant|
w: Thee|I’ll ex- tol, my _|God and King, Thy|end- less praise pro-|claim. This|tri- bute dai- ly _|I will bring, And|e- ver bless thy|
w: Re-|nown’d for migh- ty _|acts, thy fame To|fu- ture times ex-|tends; From|age to age thy _|glo- rious name Suc-|cess- ive- ly des-|
 A6 A2 | d2 (cd) e2 A2 | B2 A2 G2 B2 | c2 (BA) B2 ^c2 | d6 d2 | e2 (dc) B2 c2 | d2 (cB) A2 d2 | %15
w: theme. The|Lord is _ good; fresh|acts of grace His|pi- ty _ still sup-|plies; His|an- ger _ moves with|slow- est _ pace, His|
w: name. Thou,|Lord, be- * yond com-|pare, art great, And|high- ly _ to be|prais’d; Thy|ma- jes- * ty, with|bound- less _ height, A-|
w: cends. While|I thy _ glo- ry|and re- nown, And|wond- rous _ works ex-|press, The|world with _ me thy|might shall _ own, And|
 c2 B2 A3 A | G6 |] %17
w: will- ing mer- cy|flies.|
w: bove our know- ledge|rais’d.|
w: thy great pow’r con-|fess.|
V:4
 G,,2 | G,2 A,2 B,2 (A,G,) | A,2 G,2 F,2 D,2 | E,2 B,,2 C,2 D,2 | G,,6 D,2 | G,2 (F,E,) D,2 G,,2 | %6
w: The|praise, that to thy _|love be- longs, They|shall with joy pro-|claim: Thy|truth of _ all their|
w: Thee|I’ll ex- tol, my _|God and King, Thy|end- less praise pro-|claim. This|tri- bute _ dai- ly|
w: Re-|nown’d for migh- ty _|acts, thy fame To|fu- ture times ex-|tends; From|age to _ age thy|
 C,2 B,,2 A,,2 A,,2 | B,,2 C,2 D,2 E,2 | A,,6 A,2 | F,2 (G,F,) E,2 (F,E,) | D,2 C,2 B,,2 D,2 | %11
w: grate- ful songs Shall|be the con- stant|theme. The|Lord is _ good; fresh _|acts of grace His|
w: I will bring, And|e- ver bless thy|name. Thou,|Lord, be- * yond com- *|pare, art great, And|
w: glo- rious name Suc-|cess- ive- ly des-|cends. While|I thy _ glo- ry _|and re- nown, And|
"^Emendations: The order of staves in the source is the same as in this edition: no indication is given of the allocation ofthe treble and tenor parts. The alto part is notated in the source in the treble clef an octave above sounding pitch.The only indication of the text given in the source is the title 'Psalm ye 145th N.V.': four verses of this text have beenunderlaid editorially." A,2 (G,F,) G,2 A,2 | %12
w: pi- ty _ still sup-|
w: high- ly _ to be|
w: wond- rous _ works ex-|
 D,6 D,2 | A,,2 (B,,C,) D,2 A,,2 | B,,2 (A,,G,,) D,2 D,2 | E,2 B,,2 C,2 D,2 | G,,6 |] %17
w: plies; His|an- ger _ moves with|slow- est _ pace, His|will- ing mer- cy|flies.|
w: prais’d; Thy|ma- jes- * ty, with|bound- less _ height, A-|bove our know- ledge|rais’d.|
w: press, The|world with _ me thy|might shall _ own, And|thy great pow’r con-|fess.|

